X:311
T:Aux marches du palais
O:France
M:3/4
L:1/4
Q:1/4=100
K:G
B/2|BB/2cB/2|B3/2BA/2|AA/2BA/2|A3/2AD/2|
GG/2GA/2|G/2F/2F/2 FD/2|AA/2AB/2|A3/2G:||
W:Aux marches du palais
W:Aux marches du palais
W:Y'a une tant belle fille lonla
W:Y'a une tant belle fille
W:Elle a tant d'amoureux
W:Elle a tant d'amoureux
W:Qu'elle ne sait lequel prendre lonla
W:Qu'elle ne sait lequel prendre
